symbols/web/location_off/materialsymbolsoutlined/location_off_wght100gradN25fill1_24px.svg

<svg xmlns="http://www.w3.org/2000/svg" height="24" width="24"><path d="M21.275 22.175 16.2 17.1q-.825 1.05-1.875 2.125T12 21.45q-3.7-3.35-5.5-6.2-1.8-2.85-1.8-5.05 0-1.075.225-2t.65-1.725L2.4 3.3l.45-.475 18.875 18.9Zm-3.575-7.2L13.225 10.5q.05-.125.075-.25.025-.125.025-.25 0-.575-.375-.95T12 8.675q-.125 0-.25.025t-.25.075L7.2 4.45q.975-.85 2.213-1.313Q10.65 2.675 12 2.675q2.9 0 5.113 2.037 2.212 2.038 2.212 5.488 0 1.05-.4 2.238-.4 1.187-1.225 2.537Z"/></svg>

<svg xmlns="http://www.w3.org/2000/svg" height="24" width="24"><path d="M21.275 22.175 16.2 17.1Q15.375 18.15 14.325 19.225Q13.275 20.3 12 21.45Q8.3 18.1 6.5 15.25Q4.7 12.4 4.7 10.2Q4.7 9.125 4.925 8.2Q5.15 7.275 5.575 6.475L2.4 3.3L2.85 2.825L21.725 21.725ZM17.7 14.975 13.225 10.5Q13.275 10.375 13.3 10.25Q13.325 10.125 13.325 10Q13.325 9.425 12.95 9.05Q12.575 8.675 12 8.675Q11.875 8.675 11.75 8.7Q11.625 8.725 11.5 8.775L7.2 4.45Q8.175 3.6 9.413 3.137Q10.65 2.675 12 2.675Q14.9 2.675 17.113 4.712Q19.325 6.75 19.325 10.2Q19.325 11.25 18.925 12.438Q18.525 13.625 17.7 14.975Z"/></svg>
